X: 26
T:Captain Rosses() Gigg. JBa.25
M:4/4
L:1/4
Q:150
S:Joseph Barnes MS,Carlisle,1762.
R:reel
O:England
A:Carlisle
N:Very difficult to read..No key signature..  Duration of notes tricky to
N:read -
N:rest at start of Bstrain is editorial..The Csharp in bar 12 is a
N:problem..CGr.
Z:vmp.C.Graebe.
K:D major
"no key sig"A | F>EDc | d/c/B/A/ "cr"c2 | ECCE | cEEA |!
 FEDc | d/c/B/A/ d2 | FDD"crs"B/c/ | dAA :|!
|:z|d>efd | gefd | ecc e/f/ | (g/f/)(e/d/) ""^c>e |!
 defg | abg>f | fdae | d/d/ dd |]
